X:163
%%topspace -50
T: Pyjama Hornpipe
C: Kris Hughes
M: 4/4
L: 1/8
K: G
"G"D3/2E/G3/2D/  "D"F3/2G/A3/2B/ | "G"G3/2A/B3/2G/  "C"A3/2G/E3/2D/ | "G"D3/2E/G3/2D/  "D"F3/2G/A3/2B/ | "G"d3/2^c/d3/2(d/  "D"d3/2)=c/B3/2A/ | 
"G"D3/2E/G3/2D/  "D"F3/2G/A3/2B/ | "G"G3/2A/B3/2G/  "C"A3/2G/E3/2D/ | "C"g3/2f/g3/2e/  "G"d3/2B/A3/2G/ | "D"BA3"G"G4::  
"Em"g3/2f/e3/2g/ "C"e2 d3/2(B/ | "G"B3/2)A/G3/2B/  "D"A3/2G/E3/2D/ | "Em"g3/2f/e3/2g/  "C"e3/2d/B3/2A/ | "G"G3/2A/B3/2c/  "D"d3/2B/  (3def | 
"Em"g3/2f/e3/2g/ "C"e2 d3/2(B/ | "G"B3/2)A/G3/2B/  "D"A3/2G/E3/2F/ | "C"G3/2A/B3/2c/  "G"d3/2B/A3/2G/ | "D"BA3"G"G4:| 

